X: 15
L:1/8
M:2/4
K:G
|:(B/c/)|(d2 d)(3c/d/^d/|ed AB|c2 cA|F3 (A/B/)|(c2 c)(3B/c/^c/|
dc A_B|=B2 BG|D3G|(B2 B)(3A/B/c/|(d2 d)(3c/d/^d/|eecA|
E3_E|D d3 ^c/=c/|ccBA|(G4|G3:|



